X: 3
T:Sixers Reel
M:4/4
L:1/8
Q:120
C:Matthew Richards
K:D
cdea gfed|(3cde Ae (3cde Ae|cdea gfed|(3Bcd Gd (3Bcd Gd|cdea gfed|
|(3cde Ae(3cde Ae|aegf ecdB|cABe A2 A2:|:(3AAA Bcde ae|
|(3AAA BcBA Bc|(3AAA Bcde(3gfe|d/2/c/2/B/2/A/2 BcBA AE|
|(3AAA Bcde ae|beae gfec|(3AAA BcBA FA|EAFA EAFA|
|(3ddd fd (3ccc ec|Bcd^g aegf|(3ddd fd (3ccc ec|Bcd^g aedB|
|(3cdc BcBA FE|(3dcB A^G A2 a2:|
